X: 1
T: Sligo Maid
R: reel
%S: s:2 b:12(6+6)
S: Fiddle Hell Online 2021-10-29
Z: 2021 John Chambers <jc:trillian.mit.edu>
M: C|
L: 1/8
K: Am
|: "Am"A2BA Bdef | gedB AGED |\
[1,3 "G"G2BG cGBG | DEGA BAGB :|\
[2,4 "G"G2BA G2GE | DEGA "Am"BAA2 :|
|: "Am"eaag a2ga | bgaf gfed |\
[1,3 "G"Bgfg gage | dega bagf :|\
[2,4 "G"Bgfg edef | gedB "Am"BAA2 :|
